components/Common/Svg/svgs/titledScala.svg

<svg width="55" height="143" viewBox="0 0 55 143" fill="none" xmlns="http://www.w3.org/2000/svg">
<path d="M7.364 133.126C6.536 133.126 5.792 132.982 5.132 132.694C4.484 132.394 3.974 131.986 3.602 131.47C3.23 130.942 3.038 130.336 3.026 129.652H4.772C4.832 130.24 5.072 130.738 5.492 131.146C5.924 131.542 6.548 131.74 7.364 131.74C8.144 131.74 8.756 131.548 9.2 131.164C9.656 130.768 9.884 130.264 9.884 129.652C9.884 129.172 9.752 128.782 9.488 128.482C9.224 128.182 8.894 127.954 8.498 127.798C8.102 127.642 7.568 127.474 6.896 127.294C6.068 127.078 5.402 126.862 4.898 126.646C4.406 126.43 3.98 126.094 3.62 125.638C3.272 125.17 3.098 124.546 3.098 123.766C3.098 123.082 3.272 122.476 3.62 121.948C3.968 121.42 4.454 121.012 5.078 120.724C5.714 120.436 6.44 120.292 7.256 120.292C8.432 120.292 9.392 120.586 10.136 121.174C10.892 121.762 11.318 122.542 11.414 123.514H9.614C9.554 123.034 9.302 122.614 8.858 122.254C8.414 121.882 7.826 121.696 7.094 121.696C6.41 121.696 5.852 121.876 5.42 122.236C4.988 122.584 4.772 123.076 4.772 123.712C4.772 124.168 4.898 124.54 5.15 124.828C5.414 125.116 5.732 125.338 6.104 125.494C6.488 125.638 7.022 125.806 7.706 125.998C8.534 126.226 9.2 126.454 9.704 126.682C10.208 126.898 10.64 127.24 11 127.708C11.36 128.164 11.54 128.788 11.54 129.58C11.54 130.192 11.378 130.768 11.054 131.308C10.73 131.848 10.25 132.286 9.614 132.622C8.978 132.958 8.228 133.126 7.364 133.126ZM13.3385 128.05C13.3385 127.03 13.5425 126.142 13.9505 125.386C14.3585 124.618 14.9225 124.024 15.6425 123.604C16.3745 123.184 17.2085 122.974 18.1445 122.974C19.3565 122.974 20.3525 123.268 21.1325 123.856C21.9245 124.444 22.4465 125.26 22.6985 126.304H20.9345C20.7665 125.704 20.4365 125.23 19.9445 124.882C19.4645 124.534 18.8645 124.36 18.1445 124.36C17.2085 124.36 16.4525 124.684 15.8765 125.332C15.3005 125.968 15.0125 126.874 15.0125 128.05C15.0125 129.238 15.3005 130.156 15.8765 130.804C16.4525 131.452 17.2085 131.776 18.1445 131.776C18.8645 131.776 19.4645 131.608 19.9445 131.272C20.4245 130.936 20.7545 130.456 20.9345 129.832H22.6985C22.4345 130.84 21.9065 131.65 21.1145 132.262C20.3225 132.862 19.3325 133.162 18.1445 133.162C17.2085 133.162 16.3745 132.952 15.6425 132.532C14.9225 132.112 14.3585 131.518 13.9505 130.75C13.5425 129.982 13.3385 129.082 13.3385 128.05ZM24.272 128.032C24.272 127.024 24.476 126.142 24.884 125.386C25.292 124.618 25.85 124.024 26.558 123.604C27.278 123.184 28.076 122.974 28.952 122.974C29.816 122.974 30.566 123.16 31.202 123.532C31.838 123.904 32.312 124.372 32.624 124.936V123.136H34.28V133H32.624V131.164C32.3 131.74 31.814 132.22 31.166 132.604C30.53 132.976 29.786 133.162 28.934 133.162C28.058 133.162 27.266 132.946 26.558 132.514C25.85 132.082 25.292 131.476 24.884 130.696C24.476 129.916 24.272 129.028 24.272 128.032ZM32.624 128.05C32.624 127.306 32.474 126.658 32.174 126.106C31.874 125.554 31.466 125.134 30.95 124.846C30.446 124.546 29.888 124.396 29.276 124.396C28.664 124.396 28.106 124.54 27.602 124.828C27.098 125.116 26.696 125.536 26.396 126.088C26.096 126.64 25.946 127.288 25.946 128.032C25.946 128.788 26.096 129.448 26.396 130.012C26.696 130.564 27.098 130.99 27.602 131.29C28.106 131.578 28.664 131.722 29.276 131.722C29.888 131.722 30.446 131.578 30.95 131.29C31.466 130.99 31.874 130.564 32.174 130.012C32.474 129.448 32.624 128.794 32.624 128.05ZM38.6861 119.68V133H37.0481V119.68H38.6861ZM40.8658 128.032C40.8658 127.024 41.0698 126.142 41.4778 125.386C41.8858 124.618 42.4438 124.024 43.1518 123.604C43.8718 123.184 44.6698 122.974 45.5458 122.974C46.4098 122.974 47.1598 123.16 47.7958 123.532C48.4318 123.904 48.9058 124.372 49.2178 124.936V123.136H50.8738V133H49.2178V131.164C48.8938 131.74 48.4078 132.22 47.7598 132.604C47.1238 132.976 46.3798 133.162 45.5278 133.162C44.6518 133.162 43.8598 132.946 43.1518 132.514C42.4438 132.082 41.8858 131.476 41.4778 130.696C41.0698 129.916 40.8658 129.028 40.8658 128.032ZM49.2178 128.05C49.2178 127.306 49.0678 126.658 48.7678 126.106C48.4678 125.554 48.0598 125.134 47.5438 124.846C47.0398 124.546 46.4818 124.396 45.8698 124.396C45.2578 124.396 44.6998 124.54 44.1958 124.828C43.6918 125.116 43.2898 125.536 42.9898 126.088C42.6898 126.64 42.5398 127.288 42.5398 128.032C42.5398 128.788 42.6898 129.448 42.9898 130.012C43.2898 130.564 43.6918 130.99 44.1958 131.29C44.6998 131.578 45.2578 131.722 45.8698 131.722C46.4818 131.722 47.0398 131.578 47.5438 131.29C48.0598 130.99 48.4678 130.564 48.7678 130.012C49.0678 129.448 49.2178 128.794 49.2178 128.05Z" fill="#A0A0A0"/>
<path d="M0 54.7528V61.5969C0 62.7506 25.0029 64.6828 41.293 68.441C49.1623 66.6252 55 64.384 55 61.5969V54.7528C55 51.9673 49.1623 49.7246 41.293 47.9087C25.0027 51.6676 0 53.6 0 54.7528Z" fill="#4F4F4F"/>
<path d="M0 27.3764V34.2205C0 35.3741 25.0029 37.3063 41.293 41.0646C49.1623 39.2487 55 37.0075 55 34.2205V27.3764C55 24.5908 49.1623 22.3481 41.293 20.5323C25.0027 24.2912 0 26.2236 0 27.3764Z" fill="#4F4F4F"/>
<path d="M0 41.0646V61.5969C0 59.8859 55 56.4638 55 47.9087V27.3764C55 35.9316 0 39.3536 0 41.0646Z" fill="#A3A3A3"/>
<path d="M0 13.6882V34.2205C0 32.5095 55 29.0874 55 20.5323V1.90735e-05C55 8.55515 0 11.9772 0 13.6882Z" fill="#A3A3A3"/>
<path d="M0 68.441V88.9733C0 87.2622 55 83.8402 55 75.2851V54.7528C55 63.3079 0 66.7299 0 68.441Z" fill="#A3A3A3"/>
</svg>

<svg width="55" height="143" viewBox="0 0 55 143" fill="none" xmlns="http://www.w3.org/2000/svg"><path d="M7.364 133.126c-.828 0-1.572-.144-2.232-.432-.648-.3-1.158-.708-1.53-1.224a3.178 3.178 0 0 1-.576-1.818h1.746c.06.588.3 1.086.72 1.494.432.396 1.056.594 1.872.594.78 0 1.392-.192 1.836-.576.456-.396.684-.9.684-1.512 0-.48-.132-.87-.396-1.17a2.53 2.53 0 0 0-.99-.684c-.396-.156-.93-.324-1.602-.504-.828-.216-1.494-.432-1.998-.648a3.318 3.318 0 0 1-1.278-1.008c-.348-.468-.522-1.092-.522-1.872 0-.684.174-1.29.522-1.818.348-.528.834-.936 1.458-1.224.636-.288 1.362-.432 2.178-.432 1.176 0 2.136.294 2.88.882.756.588 1.182 1.368 1.278 2.34h-1.8c-.06-.48-.312-.9-.756-1.26-.444-.372-1.032-.558-1.764-.558-.684 0-1.242.18-1.674.54-.432.348-.648.84-.648 1.476 0 .456.126.828.378 1.116.264.288.582.51.954.666.384.144.918.312 1.602.504.828.228 1.494.456 1.998.684.504.216.936.558 1.296 1.026.36.456.54 1.08.54 1.872 0 .612-.162 1.188-.486 1.728-.324.54-.804.978-1.44 1.314-.636.336-1.386.504-2.25.504Zm5.974-5.076c0-1.02.205-1.908.613-2.664a4.407 4.407 0 0 1 1.691-1.782c.733-.42 1.567-.63 2.503-.63 1.212 0 2.207.294 2.988.882.791.588 1.314 1.404 1.566 2.448h-1.765a2.518 2.518 0 0 0-.99-1.422c-.48-.348-1.08-.522-1.8-.522-.935 0-1.691.324-2.267.972-.577.636-.865 1.542-.865 2.718 0 1.188.288 2.106.864 2.754.577.648 1.333.972 2.269.972.72 0 1.32-.168 1.8-.504.48-.336.81-.816.99-1.44h1.764c-.265 1.008-.793 1.818-1.585 2.43-.791.6-1.782.9-2.97.9-.935 0-1.77-.21-2.501-.63a4.407 4.407 0 0 1-1.693-1.782c-.407-.768-.611-1.668-.611-2.7Zm10.934-.018c0-1.008.204-1.89.612-2.646a4.446 4.446 0 0 1 1.674-1.782c.72-.42 1.518-.63 2.394-.63.864 0 1.614.186 2.25.558.636.372 1.11.84 1.422 1.404v-1.8h1.656V133h-1.656v-1.836c-.324.576-.81 1.056-1.458 1.44-.636.372-1.38.558-2.232.558-.876 0-1.668-.216-2.376-.648-.708-.432-1.266-1.038-1.674-1.818-.408-.78-.612-1.668-.612-2.664Zm8.352.018c0-.744-.15-1.392-.45-1.944a3.098 3.098 0 0 0-1.224-1.26 3.211 3.211 0 0 0-1.674-.45c-.612 0-1.17.144-1.674.432a3.134 3.134 0 0 0-1.206 1.26c-.3.552-.45 1.2-.45 1.944 0 .756.15 1.416.45 1.98.3.552.702.978 1.206 1.278a3.314 3.314 0 0 0 1.674.432c.612 0 1.17-.144 1.674-.432.516-.3.924-.726 1.224-1.278.3-.564.45-1.218.45-1.962Zm6.062-8.37V133h-1.638v-13.32h1.638Zm2.18 8.352c0-1.008.204-1.89.612-2.646a4.446 4.446 0 0 1 1.674-1.782c.72-.42 1.518-.63 2.394-.63.864 0 1.614.186 2.25.558.636.372 1.11.84 1.422 1.404v-1.8h1.656V133h-1.656v-1.836c-.324.576-.81 1.056-1.458 1.44-.636.372-1.38.558-2.232.558-.876 0-1.668-.216-2.376-.648-.708-.432-1.266-1.038-1.674-1.818-.408-.78-.612-1.668-.612-2.664Zm8.352.018c0-.744-.15-1.392-.45-1.944a3.098 3.098 0 0 0-1.224-1.26 3.211 3.211 0 0 0-1.674-.45c-.612 0-1.17.144-1.674.432a3.134 3.134 0 0 0-1.206 1.26c-.3.552-.45 1.2-.45 1.944 0 .756.15 1.416.45 1.98.3.552.702.978 1.206 1.278a3.314 3.314 0 0 0 1.674.432c.612 0 1.17-.144 1.674-.432.516-.3.924-.726 1.224-1.278.3-.564.45-1.218.45-1.962Z" fill="#A0A0A0"/><path d="M0 54.753v6.844c0 1.154 25.003 3.086 41.293 6.844C49.163 66.625 55 64.384 55 61.597v-6.844c0-2.786-5.838-5.028-13.707-6.844C25.003 51.668 0 53.6 0 54.753ZM0 27.376v6.845c0 1.153 25.003 3.085 41.293 6.844C49.163 39.249 55 37.008 55 34.22v-6.845c0-2.785-5.838-5.028-13.707-6.844C25.003 24.292 0 26.224 0 27.376Z" fill="#4F4F4F"/><path d="M0 41.065v20.532c0-1.711 55-5.133 55-13.688V27.376c0 8.556-55 11.978-55 13.689ZM0 13.688V34.22c0-1.71 55-5.133 55-13.688V0C55 8.555 0 11.977 0 13.688ZM0 68.441v20.532c0-1.71 55-5.133 55-13.688V54.753C55 63.308 0 66.73 0 68.44Z" fill="#A3A3A3"/></svg>
